src/Resources/public/images/revise_database.svg

<?xml version="1.0" encoding="iso-8859-1"?>
<!-- Generator: Adobe Illustrator 18.0.0, SVG Export Plug-In . SVG Version: 6.00 Build 0)  -->
<!DOCTYPE svg PUBLIC "-//W3C//DTD SVG 1.1//EN" "http://www.w3.org/Graphics/SVG/1.1/DTD/svg11.dtd">
<svg version="1.1" id="Capa_1" xmlns="http://www.w3.org/2000/svg" xmlns:xlink="http://www.w3.org/1999/xlink" x="0px" y="0px"
	 viewBox="0 0 56 56" style="enable-background:new 0 0 56 56;" xml:space="preserve">
<g>
	<g>
		<path style="fill:#545E73;" d="M49.455,8L49.455,8C48.724,3.538,38.281,0,25.5,0S2.276,3.538,1.545,8l0,0H1.5v0.5V20v0.5V21v11
			v0.5V33v12h0.045c0.731,4.461,11.175,8,23.955,8s23.224-3.539,23.955-8H49.5V33v-0.5V32V21v-0.5V20V8.5V8H49.455z"/>
		<g>
			<path style="fill:#38454F;" d="M25.5,41c-13.255,0-24-3.806-24-8.5V45h0.045c0.731,4.461,11.175,8,23.955,8
				s23.224-3.539,23.955-8H49.5V32.5C49.5,37.194,38.755,41,25.5,41z"/>
			<path style="fill:#38454F;" d="M1.5,32v0.5c0-0.168,0.018-0.334,0.045-0.5H1.5z"/>
			<path style="fill:#38454F;" d="M49.455,32c0.027,0.166,0.045,0.332,0.045,0.5V32H49.455z"/>
		</g>
		<g>
			<path style="fill:#556080;" d="M25.5,29c-13.255,0-24-3.806-24-8.5V33h0.045c0.731,4.461,11.175,8,23.955,8
				s23.224-3.539,23.955-8H49.5V20.5C49.5,25.194,38.755,29,25.5,29z"/>
			<path style="fill:#556080;" d="M1.5,20v0.5c0-0.168,0.018-0.334,0.045-0.5H1.5z"/>
			<path style="fill:#556080;" d="M49.455,20c0.027,0.166,0.045,0.332,0.045,0.5V20H49.455z"/>
		</g>
		<ellipse style="fill:#91BAE1;" cx="25.5" cy="8.5" rx="24" ry="8.5"/>
		<g>
			<path style="fill:#8697CB;" d="M25.5,17c-13.255,0-24-3.806-24-8.5V21h0.045c0.731,4.461,11.175,8,23.955,8
				s23.224-3.539,23.955-8H49.5V8.5C49.5,13.194,38.755,17,25.5,17z"/>
			<path style="fill:#8697CB;" d="M1.5,8v0.5c0-0.168,0.018-0.334,0.045-0.5H1.5z"/>
			<path style="fill:#8697CB;" d="M49.455,8C49.482,8.166,49.5,8.332,49.5,8.5V8H49.455z"/>
		</g>
	</g>
	<g>
		<path style="fill:#ED7161;" d="M42.5,39.2c0.969-2.183,3.109-4.2,5.684-4.2c3.467,0,5.964,2.821,6.278,6.183
			c0,0,0.17,0.835-0.203,2.337c-0.508,2.046-1.701,3.864-3.311,5.251L42.5,56l-8.447-7.229c-1.61-1.387-2.803-3.205-3.311-5.251
			c-0.373-1.502-0.203-2.337-0.203-2.337C30.852,37.821,33.349,35,36.816,35C39.391,35,41.531,37.017,42.5,39.2z"/>
	</g>
</g>
<g>
</g>
<g>
</g>
<g>
</g>
<g>
</g>
<g>
</g>
<g>
</g>
<g>
</g>
<g>
</g>
<g>
</g>
<g>
</g>
<g>
</g>
<g>
</g>
<g>
</g>
<g>
</g>
<g>
</g>
</svg>

<?xml version="1.0" encoding="UTF-8" standalone="no"?>
<!-- Generator: Adobe Illustrator 18.0.0, SVG Export Plug-In . SVG Version: 6.00 Build 0)  -->

<svg
   version="1.1"
   id="Capa_1"
   x="0px"
   y="0px"
   viewBox="0 0 18 19.018633"
   xml:space="preserve"
   sodipodi:docname="revise_database.svg"
   width="18"
   height="19.018633"
   inkscape:version="1.1.1 (3bf5ae0d25, 2021-09-20)"
   xmlns:inkscape="http://www.inkscape.org/namespaces/inkscape"
   xmlns:sodipodi="http://sodipodi.sourceforge.net/DTD/sodipodi-0.dtd"
   xmlns="http://www.w3.org/2000/svg"
   xmlns:svg="http://www.w3.org/2000/svg"><defs
   id="defs985" /><sodipodi:namedview
   id="namedview983"
   pagecolor="#ffffff"
   bordercolor="#666666"
   borderopacity="1.0"
   inkscape:pageshadow="2"
   inkscape:pageopacity="0.0"
   inkscape:pagecheckerboard="true"
   showgrid="false"
   fit-margin-top="0"
   fit-margin-left="0"
   fit-margin-right="0"
   fit-margin-bottom="0"
   inkscape:zoom="13.75"
   inkscape:cx="-3.4181818"
   inkscape:cy="28"
   inkscape:window-width="1920"
   inkscape:window-height="974"
   inkscape:window-x="-11"
   inkscape:window-y="-11"
   inkscape:window-maximized="1"
   inkscape:current-layer="Capa_1" />
<g
   id="g950"
   transform="matrix(0.33961843,0,0,0.33961843,-0.50942765,0)">
	<g
   id="g944">
		<path
   style="fill:#545e73"
   d="M 49.455,8 V 8 C 48.724,3.538 38.281,0 25.5,0 12.719,0 2.276,3.538 1.545,8 V 8 H 1.5 V 8.5 20 20.5 21 32 32.5 33 45 h 0.045 c 0.731,4.461 11.175,8 23.955,8 12.78,0 23.224,-3.539 23.955,-8 H 49.5 V 33 32.5 32 21 20.5 20 8.5 8 Z"
   id="path916" />
		<g
   id="g924">
			<path
   style="fill:#38454f"
   d="M 25.5,41 C 12.245,41 1.5,37.194 1.5,32.5 V 45 h 0.045 c 0.731,4.461 11.175,8 23.955,8 12.78,0 23.224,-3.539 23.955,-8 H 49.5 V 32.5 c 0,4.694 -10.745,8.5 -24,8.5 z"
   id="path918" />
			<path
   style="fill:#38454f"
   d="m 1.5,32 v 0.5 c 0,-0.168 0.018,-0.334 0.045,-0.5 z"
   id="path920" />
			<path
   style="fill:#38454f"
   d="m 49.455,32 c 0.027,0.166 0.045,0.332 0.045,0.5 V 32 Z"
   id="path922" />
		</g>
		<g
   id="g932">
			<path
   style="fill:#556080"
   d="M 25.5,29 C 12.245,29 1.5,25.194 1.5,20.5 V 33 h 0.045 c 0.731,4.461 11.175,8 23.955,8 12.78,0 23.224,-3.539 23.955,-8 H 49.5 V 20.5 c 0,4.694 -10.745,8.5 -24,8.5 z"
   id="path926" />
			<path
   style="fill:#556080"
   d="m 1.5,20 v 0.5 c 0,-0.168 0.018,-0.334 0.045,-0.5 z"
   id="path928" />
			<path
   style="fill:#556080"
   d="m 49.455,20 c 0.027,0.166 0.045,0.332 0.045,0.5 V 20 Z"
   id="path930" />
		</g>
		<ellipse
   style="fill:#91bae1"
   cx="25.5"
   cy="8.5"
   rx="24"
   ry="8.5"
   id="ellipse934" />
		<g
   id="g942">
			<path
   style="fill:#8697cb"
   d="M 25.5,17 C 12.245,17 1.5,13.194 1.5,8.5 V 21 h 0.045 c 0.731,4.461 11.175,8 23.955,8 12.78,0 23.224,-3.539 23.955,-8 H 49.5 V 8.5 c 0,4.694 -10.745,8.5 -24,8.5 z"
   id="path936" />
			<path
   style="fill:#8697cb"
   d="M 1.5,8 V 8.5 C 1.5,8.332 1.518,8.166 1.545,8 Z"
   id="path938" />
			<path
   style="fill:#8697cb"
   d="M 49.455,8 C 49.482,8.166 49.5,8.332 49.5,8.5 V 8 Z"
   id="path940" />
		</g>
	</g>
	<g
   id="g948">
		<path
   style="fill:#ed7161"
   d="m 42.5,39.2 c 0.969,-2.183 3.109,-4.2 5.684,-4.2 3.467,0 5.964,2.821 6.278,6.183 0,0 0.17,0.835 -0.203,2.337 -0.508,2.046 -1.701,3.864 -3.311,5.251 L 42.5,56 34.053,48.771 C 32.443,47.384 31.25,45.566 30.742,43.52 30.369,42.018 30.539,41.183 30.539,41.183 30.852,37.821 33.349,35 36.816,35 c 2.575,0 4.715,2.017 5.684,4.2 z"
   id="path946" />
	</g>
</g>
<g
   id="g952"
   transform="translate(-1.5)">
</g>
<g
   id="g954"
   transform="translate(-1.5)">
</g>
<g
   id="g956"
   transform="translate(-1.5)">
</g>
<g
   id="g958"
   transform="translate(-1.5)">
</g>
<g
   id="g960"
   transform="translate(-1.5)">
</g>
<g
   id="g962"
   transform="translate(-1.5)">
</g>
<g
   id="g964"
   transform="translate(-1.5)">
</g>
<g
   id="g966"
   transform="translate(-1.5)">
</g>
<g
   id="g968"
   transform="translate(-1.5)">
</g>
<g
   id="g970"
   transform="translate(-1.5)">
</g>
<g
   id="g972"
   transform="translate(-1.5)">
</g>
<g
   id="g974"
   transform="translate(-1.5)">
</g>
<g
   id="g976"
   transform="translate(-1.5)">
</g>
<g
   id="g978"
   transform="translate(-1.5)">
</g>
<g
   id="g980"
   transform="translate(-1.5)">
</g>
</svg>
